www/source/img/svg/24-hours.svg

<svg width="65" height="65" viewBox="0 0 65 65" fill="none" xmlns="http://www.w3.org/2000/svg">
<g clip-path="url(#clip0)">
<path d="M63.7285 31.2516C63.7283 31.2516 63.7282 31.2516 63.7279 31.2516C63.0271 31.2516 62.4589 31.8194 62.4585 32.5203C62.4544 40.5161 59.3385 48.0334 53.6844 53.6873C48.0263 59.3454 40.5036 62.4614 32.5019 62.4614C24.5002 62.4614 16.9777 59.3453 11.3195 53.6872C5.66145 48.0293 2.54539 40.5063 2.54539 32.5047C2.54539 24.503 5.66133 16.9803 11.3195 11.3222C20.3994 2.24214 34.2338 -0.0474597 45.7444 5.62455C46.3728 5.93432 47.1341 5.67571 47.444 5.04704C47.7539 4.41824 47.4953 3.65729 46.8665 3.34739C34.3801 -2.80539 19.3737 -0.321806 9.52451 9.52709C3.38696 15.6646 0.00683594 23.8248 0.00683594 32.5047C0.00683594 41.1845 3.38696 49.3448 9.52438 55.4825C15.6621 61.62 23.8223 65 32.5021 65C41.1819 65 49.3422 61.6199 55.4798 55.4825C61.6127 49.3494 64.9929 41.1949 64.9973 32.5216C64.9976 31.8204 64.4297 31.2519 63.7285 31.2516Z" fill="#FF6D1C"/>
<path d="M51.2266 5.94243L51.1935 5.9192C50.6194 5.51714 49.8277 5.65679 49.4257 6.23125C49.0238 6.80546 49.1636 7.59689 49.738 7.99895L49.7675 8.01989C49.9896 8.17579 50.244 8.2507 50.496 8.2507C50.8955 8.2507 51.2887 8.06255 51.5359 7.71089C51.9388 7.13706 51.8004 6.34551 51.2266 5.94243Z" fill="#FF6D1C"/>
<path d="M57.3565 31.2261C56.6556 31.2261 56.0871 31.7944 56.0871 32.4955L56.0869 32.5732C56.0838 33.2741 56.6495 33.845 57.3506 33.8481C57.3526 33.8481 57.3544 33.8482 57.3565 33.8482C58.0548 33.8482 58.6227 33.2837 58.6257 32.5844L58.6259 32.4954C58.6259 31.7944 58.0575 31.2261 57.3565 31.2261Z" fill="#FF6D1C"/>
<path d="M57.0844 36.4032C56.3988 36.2583 55.7254 36.6978 55.5809 37.3839C53.2978 48.2318 43.5813 56.1054 32.4776 56.1054C19.4591 56.1054 8.86778 45.5141 8.86778 32.4956C8.86778 24.0644 13.3104 16.4052 20.417 12.1911C20.3344 12.7239 20.6 13.2713 21.1091 13.5228C21.29 13.6122 21.4818 13.6546 21.6705 13.6546C22.1382 13.6546 22.5881 13.395 22.8095 12.9473L24.2157 10.1018C24.5263 9.47338 24.2686 8.71217 23.6402 8.40152L20.7945 6.99526C20.1658 6.68461 19.4049 6.94245 19.0941 7.57086C18.7835 8.19928 19.0412 8.96049 19.6696 9.27115L20.0718 9.46983C11.6477 14.0019 6.3291 22.7867 6.3291 32.4953C6.3291 46.9136 18.0592 58.6438 32.4776 58.6438C38.5123 58.6438 44.4003 56.539 49.0568 52.717C53.6493 48.9475 56.8486 43.6878 58.0653 37.9066C58.2095 37.2208 57.7705 36.5475 57.0844 36.4032Z" fill="#FF6D1C"/>
<path d="M32.4998 28.4428C30.7034 28.4428 29.1765 29.6156 28.6421 31.2354H18.1561C17.4552 31.2354 16.8867 31.8037 16.8867 32.5048C16.8867 33.2057 17.4551 33.7742 18.1561 33.7742H28.6421C29.0446 34.9944 30.0103 35.96 31.2304 36.3626V50.2213C31.2304 50.9222 31.7988 51.4907 32.4997 51.4907C33.2006 51.4907 33.7691 50.9223 33.7691 50.2213V36.3624C35.3889 35.8281 36.5617 34.3011 36.5617 32.5047C36.5617 30.265 34.7395 28.4428 32.4998 28.4428ZM32.4998 34.028C31.6599 34.028 30.9766 33.3448 30.9766 32.5048C30.9766 31.6649 31.6599 30.9816 32.4998 30.9816C33.3397 30.9816 34.023 31.6649 34.023 32.5048C34.023 33.3448 33.3397 34.028 32.4998 34.028Z" fill="#FF6D1C"/>
<path d="M38.3396 23.7227H35.8657C37.6295 21.952 39.609 19.3911 39.609 16.8144C39.609 14.302 37.9209 12.6139 35.4085 12.6139C33.0924 12.6139 31.208 14.4983 31.208 16.8144C31.208 17.5155 31.7764 18.0838 32.4774 18.0838C33.1783 18.0838 33.7468 17.5156 33.7468 16.8144C33.7468 15.8981 34.4923 15.1526 35.4086 15.1526C37.0704 15.1526 37.0704 16.4035 37.0704 16.8144C37.0703 19.4506 33.2116 22.8734 31.7255 23.9694C31.2837 24.2944 31.1004 24.8664 31.2714 25.3877C31.4425 25.9088 31.929 26.2614 32.4775 26.2614H38.3398C39.0408 26.2614 39.6093 25.6931 39.6093 24.992C39.609 24.291 39.0405 23.7227 38.3396 23.7227Z" fill="#FF6D1C"/>
<path d="M51.5217 18.173H51.3245V13.8831C51.3245 13.182 50.7561 12.6137 50.0551 12.6137C49.354 12.6137 48.7857 13.1819 48.7857 13.8831V18.173H45.364V13.8831C45.364 13.182 44.7956 12.6137 44.0946 12.6137C43.3937 12.6137 42.8252 13.1819 42.8252 13.8831V19.4424C42.8252 20.1434 43.3936 20.7118 44.0946 20.7118H48.7857V25.014C48.7857 25.715 49.354 26.2834 50.0551 26.2834C50.7561 26.2834 51.3245 25.7151 51.3245 25.014V20.7118H51.5217C52.2227 20.7118 52.7912 20.1435 52.7912 19.4424C52.7912 18.7412 52.2227 18.173 51.5217 18.173Z" fill="#FF6D1C"/>
<path d="M60.4773 18.2051C59.9514 18.2051 59.449 18.3075 58.988 18.4917V13.8831C58.988 13.182 58.4197 12.6137 57.7186 12.6137C57.0176 12.6137 56.4492 13.1819 56.4492 13.8831V24.9919C56.4492 25.6929 57.0176 26.2613 57.7186 26.2613C58.4197 26.2613 58.988 25.693 58.988 24.9919V23.4401V22.233C58.988 21.4118 59.6562 20.7438 60.4773 20.7438C61.2987 20.7438 61.9667 21.4119 61.9667 22.233V24.9919C61.9667 25.6929 62.5351 26.2613 63.2361 26.2613C63.9372 26.2613 64.5055 25.693 64.5055 24.9919V22.233C64.5054 20.012 62.6984 18.2051 60.4773 18.2051Z" fill="#FF6D1C"/>
</g>
<defs>
<clipPath id="clip0">
<rect width="65" height="65" fill="white"/>
</clipPath>
</defs>
</svg>

<svg width="65" height="65" fill="none" xmlns="http://www.w3.org/2000/svg"><g clip-path="url(#clip0)" fill="#FF6D1C"><path d="M63.728 31.252c-.7 0-1.27.567-1.27 1.268-.004 7.996-3.12 15.513-8.774 21.167-5.658 5.658-13.18 8.774-21.182 8.774-8.002 0-15.524-3.116-21.183-8.774-5.658-5.658-8.774-13.18-8.774-21.182 0-8.002 3.116-15.525 8.774-21.183a29.948 29.948 0 0134.425-5.697 1.27 1.27 0 001.123-2.278 32.488 32.488 0 00-37.342 6.18C3.387 15.665.007 23.825.007 32.505c0 8.68 3.38 16.84 9.517 22.977C15.662 61.62 23.822 65 32.502 65c8.68 0 16.84-3.38 22.978-9.517 6.133-6.134 9.513-14.288 9.517-22.961a1.27 1.27 0 00-1.269-1.27z"/><path d="M51.227 5.942l-.033-.023A1.27 1.27 0 1049.737 8l.03.02a1.268 1.268 0 101.46-2.077zm6.129 25.284c-.7 0-1.269.568-1.269 1.27v.077a1.27 1.27 0 001.264 1.275h.005a1.27 1.27 0 001.27-1.264v-.089a1.27 1.27 0 00-1.27-1.269zm-.272 5.177a1.27 1.27 0 00-1.503.98c-2.283 10.849-12 18.722-23.103 18.722-13.019 0-23.61-10.59-23.61-23.61 0-8.43 4.442-16.09 11.549-20.304a1.27 1.27 0 002.392.756l1.407-2.845a1.27 1.27 0 00-.576-1.7l-2.846-1.407a1.27 1.27 0 00-1.124 2.276l.402.199A26.096 26.096 0 006.329 32.495c0 14.419 11.73 26.149 26.149 26.149a26.195 26.195 0 0016.579-5.927c4.592-3.77 7.792-9.03 9.008-14.81a1.27 1.27 0 00-.98-1.504z"/><path d="M32.5 28.443a4.068 4.068 0 00-3.858 2.792H18.156a1.27 1.27 0 000 2.54h10.486a4.08 4.08 0 002.588 2.588V50.22a1.27 1.27 0 002.54 0V36.362a4.068 4.068 0 002.792-3.857 4.067 4.067 0 00-4.062-4.062zm0 5.585c-.84 0-1.523-.683-1.523-1.523 0-.84.683-1.523 1.523-1.523.84 0 1.523.683 1.523 1.523 0 .84-.683 1.523-1.523 1.523zm5.84-10.305h-2.474c1.764-1.771 3.743-4.332 3.743-6.909 0-2.512-1.688-4.2-4.2-4.2a4.205 4.205 0 00-4.201 4.2 1.27 1.27 0 002.539 0c0-.916.745-1.661 1.662-1.661 1.661 0 1.661 1.25 1.661 1.661 0 2.637-3.858 6.06-5.345 7.155a1.27 1.27 0 00.752 2.292h5.863a1.27 1.27 0 100-2.538zm13.182-5.55h-.197v-4.29a1.27 1.27 0 00-2.54 0v4.29h-3.421v-4.29a1.27 1.27 0 00-2.539 0v5.56c0 .7.569 1.269 1.27 1.269h4.69v4.302a1.27 1.27 0 002.54 0v-4.302h.197a1.27 1.27 0 000-2.539zm8.955.032c-.526 0-1.028.103-1.489.287v-4.609a1.27 1.27 0 10-2.539 0v11.109a1.27 1.27 0 002.539 0v-2.759a1.49 1.49 0 012.979 0v2.759a1.27 1.27 0 002.538 0v-2.759a4.033 4.033 0 00-4.028-4.028z"/></g><defs><clipPath id="clip0"><path fill="#fff" d="M0 0h65v65H0z"/></clipPath></defs></svg>
